X: 429
T:Longdrop, The
M:4/4
L:1/8
N:Posted to the woodenflute mailing list August 2001
C:Richard Twomey
S:Kevin Crawford: In good company
Z:Rachel Marsh
K:G
gedg edBA | GE ~E2 EDBD | ~G3 A B3 c | dBeB dG (3Bcd |
gedg edBA | GE ~E2 EDBD | ~G3 A (3Bcd ge | dBAc BG Bd :|
gBBA B2 gB | ~B2 ge aged | cBcd ~e3 f | g2 bged Bd |
gBBA B2 gB | ~B2 ge aged | cBcd efge | dBAc BG Bd :||

